X: 35492
T: Rubane Road
R: jig
M: 6/8
K: Gdorian
DGG G2A|B2c AFD|F3 AGF|(3DEF D CA,G,|
DGG G2A|B2c Ace|f2d cAF|1 AGF G2F:|2 AGF G2A||
|:dgg ^fgg|dga bag|f3 fef|agf ecA|
dgg ^fgg|dga bag|f3 agf|1 dcA G2A:|2 dcA G2F||

